X:1
T:Title
%%score { 1 | ( 2 3 ) }
L:1/8
Q:1/4=118
M:4/4
K:G
V:1 treble nm="Grand Piano"
V:2 bass 
V:3 bass 
V:1
 B4 A2 B2 | G3 A G4 | E4 [EG]2 [CE]2 | [B,D]8 | [DG]4 A2 B2 | [Ec]3 [Ec] [CE]4 | %6
w: J.~H.~Fillmore * *||||||
 [B,D]4 [DG]2 [DB]2 | A8 | B4 A2 B2 | G3 A G4 | E4 [EG]2 [CE]2 | [B,D]8 | [DG]4 A2 B2 | %13
w: |||||||
 [Ec]3 [Ec] E4 | D2 G2 F2 A2 | [B,DG]8 | d4 e3 d | d3 B d4 | d4 [Ge]3 d | d3 B A4 | B4 A3 G | %21
w: ||||||||
 [EG]3 E E4 | D2 G2 F2 A2 | [B,DG]8 |] %24
w: |||
V:2
 [G,D]4 [D,F,C]2 [D,F,D]2 | [E,G,B,]3 [E,G,C] [E,G,B,]4 | [C,G,C]4 [C,G,]2 [C,G,]2 | [G,,G,]8 | %4
 [B,,G,]4 [D,F,D]2 [G,D]2 | [C,G,]3 [C,G,] [C,G,]4 | [G,,G,]4 [B,,G,]2 [G,,G,]2 | [D,F,D]8 | %8
 [G,D]4 [D,F,C]2 [D,F,D]2 | [E,G,B,]3 [E,G,C] [E,G,B,]4 | [C,G,C]4 [C,G,]2 [C,G,]2 | [G,,G,]8 | %12
 [B,,G,]4 [D,F,D]2 [G,=F]2 | [C,G,]3 [C,G,] [C,G,C]4 | [G,B,]2 [B,D]2 [D,A,D]2 [D,CD]2 | G,,8 | %16
 [G,B,G]4 [G,CG]3 [G,B,G] | [G,B,G]3 [G,G] [G,B,G]4 | [G,B,G]4[K:bass] [C,C]3 [G,B,G] | %19
 [F,A,D]3 [G,D] [D,F,D]4 | [G,D]4 [D,F,C]3 [E,G,B,] | [C,C]3 [C,G,C] [C,G,C]4 | %22
 [G,B,]2 [B,D]2 [D,A,D]2 [D,CD]2 | G,,8 |] %24
V:3
 x8 | x8 | x8 | x8 | x8 | x8 | x8 | x8 | x8 | x8 | x8 | x8 | x8 | x8 | D,4 z4 | x8 | x8 | x8 | %18
 x4[K:bass] x4 | x8 | x8 | x8 | D,4 z4 | x8 |] %24

